X: 3
T: Jenny's Welcome To Charlie
R: reel
M: 4/4
L: 1/8
K: Ddor
[D3D3] A AGEF|G/F/E cE dEcE|DAAc AGEG-|~G2 cG EDCE|D3 A AGEF|G/F/E cE d2 cd|e/d/c dc AGEG-| ~G2 cG EDCE|D3 A AGEF|G/F/E cE dEcE|DAAc AGEG|{A}GEcG EcGE|D3 A AGEF|G~c3 d2 cd|e/d/c dc AGEG-|~G2 cG EDDe||~f3d efed|cA (3AAA cAG2 |~f3d edcd|eaag edd2 |e~f3 efed|cAAc G2 cd|e/d/c dc AGEG-|~G2 cG EDD2 |e~f3 efed|B~c3 cAG2 |~f3d edcd|e/f/g ag ed[d2D2] |~f3d efed|cAAc G2 cd|e/d/c dc AGEG-|~G2 cG EFGE||Daag age^f|~g3a gedg|ea{b}ag abag|ea{b}ag edde|a/b/a gb a2 e^f|~g3a gedB|[GG,]A B/c/d ecBc|AGcG EFGE|[DA]~a3 age^f|ge f/g/a f-~g3|ea{b}ag a2 ag|ea{b}ag ed[dD]e|a/b/a gb age^f||~g3a gedB|[GG,]A B/c/d ecBc|AGcG EFGE|Dd{e}dc d2 ed|~c3d cAGc|Ad{e}dc d/e/d cd|ea{b}ag eddc|d2 ce dcAB|[c3E3]B cAGE|[D2A2] FA d2 cB|A/B/A GF EFGE|[DA]~d3 fded|cA B/c/d B~c3|Ad{e}dc d2 cd|ea{b}ag eddc|dece (3ded AB|~c3d cAGE|D3 ^c- decB|A/B/A GF EcGE||


Tune 370	Setting 22961

